!!!!SEGMENT: Ric2035-Ave_virgo_gloriosa--Joannis_Richafort
!!!id: Ric2035
!!!SMS: Joannis Richafort
!!!AGN: Motet
!!!voices: 3
!!!COM: Jean Richafort
!!!OTL: Ave virgo gloriosa (Joannis Richafort)
**kern	**kern	**kern
*part3	*part2	*part1
*staff3	*staff2	*staff1
*I"Bassus	*I"Altus	*I"Superius
*I'B	*I'A	*I'S
*clefF4	*clefG2	*clefG2
*k[]	*k[]	*k[]
*M2/1	*M2/1	*M2/1
*met(C|)	*met(C|)	*met(C|)
=1	=1	=1
!!section: Prima pars: Ave virgo gloriosa
!!!OMD: Prima pars: Ave virgo gloriosa
!	!	!LO:TX:a:t=Tenor not extant
1r	0r	0r
[1A	.	.
=2	=2	=2
1A]	0r	0r
1A	.	.
=3	=3	=3
1D	0r	0r
[1A	.	.
=4	=4	=4
2A]	0r	0r
2G	.	.
2.F	.	.
4G	.	.
=5	=5	=5
1E	0r	1r
[1D	.	[1a
=6	=6	=6
1D]	0a	2a]
.	.	2a
1r	.	2.cc
.	.	4dd
=7	=7	=7
0r	1a	2ee
.	.	1ff
.	1d	.
.	.	4ee
.	.	4dd
=8	=8	=8
1r	1.a	2.cc
.	.	4dd
[1A	.	4ee
.	.	4ff
.	2g	[2ee
=9	=9	=9
1A]	2.f	2ee]
.	.	1dd
.	4g	.
1A	2e	.
.	[2f	2cc
=10	=10	=10
1D	2f]	1dd
.	4e	.
.	4d	.
[1A	2.c	1r
.	4d	.
=11	=11	=11
2A]	4e	0r
.	4f	.
2G	2.e	.
2F	.	.
.	4d	.
2G	[2d	.
=12	=12	=12
1E	2d]	1r
.	2c#i	.
[1D	1d	1dd
=13	=13	=13
1D]	1r	2dd
.	.	2dd
1r	2r	2.cc
.	2a	.
.	.	4b
=14	=14	=14
0r	2a	2cc
.	2a	2dd
.	2.g	2.ee
.	4f	8ddL
.	.	8ccJ
=15	=15	=15
0r	2g	2b
.	2a	2cc
.	4b-i	4dd
.	4a	4cc
.	4g	4b
.	4f	4a
=16	=16	=16
0r	2g	2b
.	2e	2g
.	2f	2.a
.	[2a	.
.	.	4cc
=17	=17	=17
1r	2a]	1b
.	2g#i	.
2r	[1a	1a
2A	.	.
=18	=18	=18
2A	1a]	0r
2A	.	.
2.G	1r	.
4F	.	.
=19	=19	=19
2G	0r	1dd
1A	.	.
.	.	2dd
2G	.	2dd
=20	=20	=20
1A	1r	2.cc
.	.	4b
1r	2r	2cc
.	2a	2dd
=21	=21	=21
0r	2a	4dd
.	.	4cc
.	2a	4b
.	.	4a
.	2.g	2.b
.	4f	4a
=22	=22	=22
1r	2g	2b
.	2.a	2cc
2r	.	[1a
.	4g	.
2d	4f	.
.	4e	.
=23	=23	=23
2d	1f	1a]
2d	.	.
2.c	2e	1r
.	[2g	.
4c	.	.
=24	=24	=24
2c	4g]	1r
.	4f	.
1d	4e	.
.	4d	.
.	1e	1ee
2c	.	.
=25	=25	=25
2d	4d	1ff
.	4e	.
1d	4f	.
.	4g	.
.	2a	2dd
2G	2b	[2ee
=26	=26	=26
1B-X	1g	2ee]
.	.	1dd
1A	1a	.
.	.	2cc#i
=27	=27	=27
[0D	1f	1dd
.	2r	1r
.	2d	.
=28	=28	=28
0D]	2.f	1dd
.	4g	.
.	2a	2ff
.	2b	2ff
=29	=29	=29
0r	2.cc	2.ee
.	8bL	8ddL
.	8aJ	8ccJ
.	2b	2dd
.	2a	2cc
=30	=30	=30
0r	4f	2.ff
.	4g	.
.	1a	.
.	.	8eeL
.	.	8ddJ
.	.	2cc
.	4g	2dd
.	4f	.
=31	=31	=31
0r	2g	2ee
.	2e	2.gg
.	1f	.
.	.	4ff
.	.	[2ff
=32	=32	=32
1r	1g	4ff]
.	.	8eeL
.	.	8ddJ
.	.	2ee
2r	[1a	[1ff
2D	.	.
=33	=33	=33
2.F	1a]	1ff]
4G	.	.
2A	1r	1r
2B	.	.
=34	=34	=34
2.c	1r	0r
4B	.	.
2A	1a	.
2F	.	.
=35	=35	=35
1G	1b	0r
1F	2a	.
.	2f	.
=36	=36	=36
0r	2g	1ee
.	2a	.
.	4d	1ff
.	4e	.
.	4f	.
.	4g	.
=37	=37	=37
0r	4a	2ee
.	4b	.
.	4cc	2cc
.	4a	.
.	2b	2dd
.	[2cc	2ee
=38	=38	=38
1r	4cc]	2a
.	4b	.
.	2.a	2.cc
1A	.	.
.	4g	4b
.	[2f	[2a
=39	=39	=39
1B	2f]	2a]
.	4e	2g#i
.	4d	.
[1A	2.c	[1a
.	4d	.
=40	=40	=40
2A]	2e	1a]
2F	2f	.
2G	2e	1r
2A	[2f	.
=41	=41	=41
2D	2f]	1r
1d	4e	.
.	4d	.
.	1e	1ee
4c	.	.
4B	.	.
=42	=42	=42
2c	1r	1ee
1A	.	.
.	1a	1ff
4G	.	.
4F	.	.
=43	=43	=43
2G	2b	2ee
2A	1a	2cc
1D	.	1dd
.	2f	.
=44	=44	=44
0r	2g	1ee
.	2.a	.
.	.	2.dd
.	4d	.
.	[2a	.
.	.	4cc
=45	=45	=45
1r	2a]	1b
.	2g#i	.
[1A	[1a	4a
.	.	4b
.	.	4cc
.	.	4dd
=46	=46	=46
1A]	1a]	2ee
.	.	1ff
1B	2.f	.
.	.	4ee
.	4g	4dd
=47	=47	=47
1.A	4a	2.cc
.	4g	.
.	4a	.
.	4b	4dd
.	1cc	4ee
.	.	4cc
2F	.	2ff
=48	=48	=48
1G	1b	2ee
.	.	1dd
1A	1a	.
.	.	2cc#i
=49	=49	=49
0D	[0f	1dd
.	.	1r
=50	=50	=50
0r	1f]	1a
.	1r	1dd
=51	=51	=51
0r	1d	2r
.	.	1dd
.	1g	.
.	.	2dd
=52	=52	=52
0r	2r	2.b
.	1g	.
.	.	4cc
.	.	2dd
.	2g	[2ee
=53	=53	=53
0r	2.e	2ee]
.	.	4dd
.	4f	4cc
.	2g	2b
.	[2a	2cc
=54	=54	=54
0r	2a]	4a
.	.	4b
.	4g	4cc
.	4f	4dd
.	2e	2ee
.	2d	[2ff
=55	=55	=55
0r	1e	4ff]
.	.	4ee
.	.	1ee
.	1f	.
.	.	2dd
=56	=56	=56
1r	2e	1ee
.	4d	.
.	4c	.
1G	1d	1r
=57	=57	=57
1c	1e	0r
2r	1r	.
[2c	.	.
=58	=58	=58
2c]	1r	0r
2c	.	.
2.A	2r	.
.	[2a	.
4B	.	.
=59	=59	=59
2c	2a]	0r
1d	2a	.
.	2.f	.
4c	.	.
4B	4g	.
=60	=60	=60
2A	4a	0r
.	4g	.
2.c	4a	.
.	4b	.
.	2cc	.
4B	.	.
2G	[2b	.
=61	=61	=61
2A	4b]	0r
.	4a	.
2D	1a	.
1E	.	.
.	2g	.
=62	=62	=62
1A	1a	1r
2r	2r	2r
[2D	[2a	[2ff
=63	=63	=63
2D]	2a]	2ff]
2D	2a	2ff
1D	1a	1ff
=64	=64	=64
1A	2.cc	2.ee
.	4b	4dd
1A	4a	2ee
.	4g	.
.	[2a	[2ff
=65	=65	=65
1B-i	4a]	4ff]
.	4g	4ee
.	4f	4dd
.	4e	4cc
1B-i	2f	2dd
.	2d	2dd
=66	=66	=66
1F	[0a	[0cc
2r	.	.
2A	.	.
=67	=67	=67
1c	0a]	0cc_
2r	.	.
2A	.	.
=68	=68	=68
2.c	0r	0cc]
4B	.	.
2A	.	.
4G	.	.
4F	.	.
=69	=69	=69
2G	0r	0r
2A	.	.
2D	.	.
2F	.	.
=70	=70	=70
1E	1r	0r
1D	2r	.
.	2a	.
=71	=71	=71
0r	1cc	2r
.	.	2a
.	2r	1cc
.	2a	.
=72	=72	=72
0r	2.cc	2r
.	.	2a
.	4b	.
.	4a	2.cc
.	4g	.
.	2f	.
.	.	4b
=73	=73	=73
0r	4f	2a
.	4e	.
.	1e	2g
.	.	1f
.	2d	.
=74	=74	=74
2r	1e	0e
2.A	.	.
.	1r	.
4G	.	.
4A	.	.
4B	.	.
=75	=75	=75
2c	2r	1r
1d	2d	.
.	2.f	1a
4c	.	.
4B	4g	.
=76	=76	=76
2.A	4a	2.cc
.	4b	.
.	2.cc	.
4B	.	4dd
2c	.	2ee
.	4b	.
2A	[2a	[2ff
=77	=77	=77
1B	2a]	2ff]
.	2g	4ee
.	.	4dd
2A	1a	1cc
2c	.	.
=78	=78	=78
1B	2f	2r
.	2g	1dd
1A	1a	.
.	.	2cc
=79	=79	=79
0r	1e	2b
.	.	2g
.	1r	2.a
.	.	4b
=80	=80	=80
0r	1r	2cc
.	.	2dd
.	2r	2.a
.	[2a	.
.	.	4b
=81	=81	=81
0r	2a]	4cc
.	.	4dd
.	2g	1ee
.	2e	.
.	2f	4dd
.	.	4cc
=82	=82	=82
0r	2g	4b
.	.	4a
.	1a	2cc
.	.	1b
.	2g#i	.
=83	=83	=83
2r	1a	2.a
1d	.	.
.	.	4b
.	1a	4cc
.	.	4dd
2c	.	4ee
.	.	4cc
=84	=84	=84
2B	1b	2dd
2G	.	2.ee
2.A	2.cc	.
.	.	4dd
.	.	2ff
4B	4b	.
=85	=85	=85
2c	4a	2ee
.	4g	.
2d	2a	1dd
1A	1a	.
.	.	2cc#i
=86	=86	=86
0Dl	0fl	0ddl
=87||	=87||	=87||
*M2/1	*M2/1	*M2/1
*met(C|)	*met(C|)	*met(C|)
!!section: Secunda pars: Ave, N, serena
!!!OMD: Secunda pars: Ave, N, serena
0r	0d	1r
.	.	1a
=88	=88	=88
0r	1.a	1a
.	.	[1ee
.	2a	.
=89	=89	=89
0r	2.g	2ee]
.	.	2ee
.	4f	.
.	2g	2dd
.	2a	2cc
=90	=90	=90
0r	2b-i	2dd
.	4a	2ee
.	4g	.
.	4f	2.ff
.	4g	.
.	[2a	.
.	.	8eeL
.	.	8ddJ
=91	=91	=91
0r	2a]	4cc
.	.	4dd
.	4g	1ee
.	4f	.
.	2.e	.
.	.	4dd
.	4f	4cc
=92	=92	=92
0r	2g	4b
.	.	4a
.	1a	2cc
.	.	2.b
.	2g	.
.	.	4cc
=93	=93	=93
0r	0a	4dd
.	.	4ee
.	.	2.ff
.	.	4ee
.	.	[2ee
=94	=94	=94
1D	0r	2ee]
.	.	2dd
[1A	.	[1ee
=95	=95	=95
2A]	0r	1ee]
2A	.	.
2.G	.	1r
4F	.	.
=96	=96	=96
2G	0r	0r
2A	.	.
2.B-i	.	.
8AL	.	.
8GJ	.	.
=97	=97	=97
2F	1r	0r
2G	.	.
2A	2r	.
2D	[2a	.
=98	=98	=98
1E	2a]	0r
.	2g	.
2F	1a	.
2D	.	.
=99	=99	=99
1A	2.e	2r
.	.	2ee
.	4g	.
1r	1f	2ee
.	.	2dd
=100	=100	=100
0r	2e	1ee
.	2.g	.
.	.	2b
.	4e	.
.	4f	2dd
.	4g	.
=101	=101	=101
0r	1a	1cc
.	[1e	2.b
.	.	8aL
.	.	8bJ
=102	=102	=102
2.A	1e]	2cc
.	.	2.ee
4B	.	.
4c	1r	.
4d	.	4dd
[2e	.	2b
=103	=103	=103
4e]	0r	2cc
4d	.	.
1d	.	2dd
.	.	1ee
2c	.	.
=104	=104	=104
2.d	1r	0a
4c	.	.
2A	2r	.
2c	[2a	.
=105	=105	=105
1B	2a]	0r
.	2g	.
2.A	1a	.
4B	.	.
=106	=106	=106
4c	2e	2r
4d	.	.
4e	2g	1ee
4c	.	.
1d	1f	.
.	.	2dd
=107	=107	=107
1r	2.e	1ee
.	8dL	.
.	8cJ	.
2r	1d	2.a
[2d	.	.
.	.	4b
=108	=108	=108
2d]	2r	4cc
.	.	4dd
2c	2e	2.ee
1d	2f	.
.	.	4dd
.	2d	[2dd
=109	=109	=109
2A	2e	2dd]
2c	1a	2cc
1B	.	1dd
.	2g#i	.
=110	=110	=110
1A	[0a	[0cc
2r	.	.
2A	.	.
=111	=111	=111
2A	0a]	0cc]
2A	.	.
2.c	.	.
4B	.	.
=112	=112	=112
4A	1r	0r
4G	.	.
2.A	.	.
.	2r	.
4G	.	.
4F	2a	.
4E	.	.
=113	=113	=113
1D	2a	2r
.	2a	2a
[1A	2.cc	2a
.	.	2a
.	4b	.
=114	=114	=114
1A]	4a	2.cc
.	4g	.
.	2.a	.
.	.	4dd
1r	.	2ee
.	4g	.
.	4f	[2ff
.	4e	.
=115	=115	=115
1r	1d	2ff]
.	.	4ee
.	.	4dd
2r	2.a	2cc
2D	.	2dd
.	4g	.
=116	=116	=116
2D	4f	1a
.	4e	.
2D	1f	.
2.F	.	2r
.	4e	2a
4G	4d	.
=117	=117	=117
2A	2.f	2a
2D	.	2a
.	4e	.
1A	4c	2.cc
.	4d	.
.	[2e	.
.	.	4b
=118	=118	=118
2F	2e]	4a
.	.	4g
2G	1d	2.b
1A	.	.
.	.	4a
.	2c	[2a
=119	=119	=119
1B-i	1d	2a]
.	.	2g
1A	2r	1a
.	[2e	.
=120	=120	=120
2r	2e]	2.a
1D	2d	.
.	.	4g
.	2f	4a
.	.	4b
2C	2g	[2cc
=121	=121	=121
2F	2a	2cc]
2G	4g	2b
.	4f	.
2.A	2e	1a
.	[2f	.
8GL	.	.
8AJ	.	.
=122	=122	=122
2B	4f]	1f
.	4e	.
1A	4f	.
.	4d	.
.	1e	1r
2G	.	.
=123	=123	=123
2A	2.c	0r
1c	.	.
.	4d	.
.	1e	.
2B	.	.
=124	=124	=124
2A	2r	1r
2B	1d	.
1A	.	2r
.	2c	[2a
=125	=125	=125
2r	2f	2a]
1c	2g	2g
.	2.a	2cc
4B	.	2dd
4A	8gL	.
.	8aJ	.
=126	=126	=126
2G	2b	2.ee
2A	2.a	.
.	.	8ddL
.	.	8eeJ
2D	.	2ff
.	4b	.
[2A	[2cc	[2ee
=127	=127	=127
2A]	2cc]	4ee]
.	.	4dd
2G	2b	1dd
1A	1a	.
.	.	2cc#i
=128	=128	=128
0D	1f	1dd
.	2r	1r
.	[2a	.
=129	=129	=129
0r	4a]	0ee
.	4b	.
.	2cc	.
.	2cc	.
.	4b	.
.	4a	.
=130	=130	=130
0r	2g	1ee
.	2a	.
.	4d	1ff
.	4e	.
.	4f	.
.	4g	.
=131	=131	=131
0r	4a	2.ee
.	4b	.
.	4cc	.
.	4a	8ddL
.	.	8ccJ
.	2b	2dd
.	[2cc	2ee
=132	=132	=132
0r	2cc]	2cc
.	4b	1ff
.	4a	.
.	2g	.
.	2a	[2ee
=133	=133	=133
1r	1f	2ee]
.	.	2dd
2r	1e	[1ee
[2A	.	.
=134	=134	=134
4A]	0r	1ee]
4B	.	.
1c	.	.
.	.	1r
4B	.	.
4A	.	.
=135	=135	=135
2G	0r	0r
2A	.	.
4D	.	.
4E	.	.
4F	.	.
4G	.	.
=136	=136	=136
4A	0r	0r
4B	.	.
4c	.	.
4A	.	.
2B-i	.	.
2A	.	.
=137	=137	=137
2F	1r	0r
2.G	.	.
.	1d	.
4F	.	.
[2F	.	.
=138	=138	=138
2F]	1f	0r
4E	.	.
4D	.	.
2E	1g	.
2E	.	.
=139	=139	=139
1D	1f	1r
[1A	1e	1a
=140	=140	=140
1A]	2r	1cc
.	1f	.
1r	.	1dd
.	4e	.
.	4d	.
=141	=141	=141
0r	2e	2.cc
.	2f	.
.	.	8bL
.	.	8aJ
.	2d	1b
.	2e	.
=142	=142	=142
1A	2A	2.cc
.	1a	.
.	.	4b
1c	.	4a
.	.	4g
.	[2g	[2cc
=143	=143	=143
1d	2g]	2cc]
.	1f	2b
1c	.	1cc
.	2e	.
=144	=144	=144
2r	2f	1a
2.d	4d	.
.	4e	.
.	4f	1a
4c	4g	.
[2c	4a	.
.	4f	.
=145	=145	=145
2c]	2g	1cc
4B	1a	.
4A	.	.
2B	.	1dd
2B	2g#i	.
=146	=146	=146
1A	1a	1cc
1r	1r	1r
=147	=147	=147
*M3/1	*M3/1	*M3/1
*met(3)	*met(3)	*met(3)
1A	1a	1cc
1A	1a	1cc
1A	1a	1cc
=148	=148	=148
0D	0f	0ff
1D	1a	1ff
=149	=149	=149
1A	1a	1ee
0B-i	1.f	0dd
.	2g	.
=150	=150	=150
0F	0a	0cc
1r	1r	1r
=151	=151	=151
1A	0a	1.cc
1A	.	.
.	.	2dd
1G	1b	2ee
.	.	2cc
=152	=152	=152
1F	1.cc	1ff
1c	.	0ee
.	2b	.
1d	1a	.
=153	=153	=153
1G	1b	0dd
0A	0a	.
.	.	1cc#i
=154	=154	=154
0D	0f	0dd
1r	1r	1r
=155	=155	=155
1A	1a	1ee
1A	1a	1ee
1A	1a	1ee
=156	=156	=156
0D	0f	0ff
1D	1a	1ff
=157	=157	=157
1A	1a	1ee
0B-i	1.f	0dd
.	2g	.
=158	=158	=158
0F	0a	0cc
1r	1r	1r
=159	=159	=159
0A	0a	1.cc
.	.	2dd
1G	1b	2ee
.	.	2cc
=160	=160	=160
1F	0cc	1ff
1c	.	0ee
1d	1a	.
=161	=161	=161
1G	1b-i	0dd
0A	0a	.
.	.	1cc#i
=162	=162	=162
*M2/1	*M2/1	*M2/1
*met(C|)	*met(C|)	*met(C|)
1D	2.f	1dd
.	4g	.
1d	2a	2r
.	2f	2dd
=163	=163	=163
2c	2g	2ee
4B	1a	1ff
4A	.	.
1B	.	.
.	2g	4ee
.	.	4dd
=164	=164	=164
0A	0a	0cc#i
=165	=165	=165
0Dl	0al	0ddl
==	==	==
*-	*-	*-
!!!system-decoration: s1,s2,s3
!!!RDF**kern: i = editorial accidental
!!!RDF**kern: l = terminal long
!!!ENC: Max Blistain
!!!END: 2026/01/03
!!!EED: Benjamin Ory
!!!EEV: 2026/03/10
!!!YEC: Copyright 2026 Benjamin Ory, All Rights Reserved
!!!ONB: Translated from MusicXML on 2026/03/10
